resources/haticons/SVG/airline_seat_legroom_reduced.svg

<!-- Generated by IcoMoon.io -->
<svg version="1.1" xmlns="http://www.w3.org/2000/svg" width="24" height="24" viewBox="0 0 24 24">
<title>airline_seat_legroom_reduced</title>
<path d="M5.016 12q0 1.219 0.891 2.109t2.109 0.891h3.984v2.016h-3.984q-2.063 0-3.539-1.477t-1.477-3.539v-9h2.016v9zM19.969 19.219q0.141 0.703-0.305 1.242t-1.148 0.539h-4.5v-3l0.984-3.984h-6q-1.219 0-2.109-0.891t-0.891-2.109v-8.016h6v6h5.016q0.797 0 1.383 0.609t0.586 1.406l-1.969 6.984h1.406q0.563 0 1.008 0.352t0.539 0.867z"></path>
</svg>

<svg xmlns="http://www.w3.org/2000/svg" width="24" height="24"><path d="M5.016 12q0 1.219.891 2.109T8.016 15H12v2.016H8.016q-2.063 0-3.539-1.477T3 12V3h2.016v9zm14.953 7.219q.141.703-.305 1.242T18.516 21h-4.5v-3L15 14.016H9q-1.219 0-2.109-.891T6 11.016V3h6v6h5.016q.797 0 1.383.609t.586 1.406l-1.969 6.984h1.406q.563 0 1.008.352t.539.867z"/></svg>
